potassium.svg

<?xml version="1.0" encoding="UTF-8"?>
<svg width="512" height="512" fill="none" version="1.1" viewBox="0 0 512 512" xmlns="http://www.w3.org/2000/svg">
 <g clip-path="url(#clip0_525_5)">
  <path d="m503.9 7.9013h-496v496h496v-496z" stroke="#fff" stroke-width="16"/>
  <g transform="translate(-.08 -30.822)" fill="#fff">
   <path d="m357.85 175.8-132 131.99 123 123 11.309-11.309-111.68-111.69 120.68-120.68z"/>
   <path d="m405.85 175.8-132 131.99 122.62 122.62 11.309-11.309-111.31-111.32 120.68-120.68z"/>
   <path d="m95 171.51 11.313 11.312 79.197-79.195 79.195 79.195 11.315-11.312-90.51-90.51z"/>
   <path d="m95 219.51 11.312 11.312 79.198-79.195 79.195 79.195 11.315-11.312-90.51-90.51z"/>
   <path d="m193.51 430.82h16v-239.2l-16-16z"/>
   <path d="m161.51 430.82h16v-255.2l-16 16z"/>
  </g>
 </g>
 <defs>
  <clipPath id="clip0_525_5">
   <rect width="512" height="512" fill="#fff"/>
  </clipPath>
 </defs>
</svg>

<svg width="512" height="512" viewBox="0 0 512 512" fill="none" xmlns="http://www.w3.org/2000/svg">
<g clip-path="url(#clip0_525_5)">
<path d="M503.902 7.90134H7.90137V503.902H503.902V7.90134Z" stroke="white" stroke-width="15.9998"/>
<path d="M357.851 175.795L225.851 307.787L348.851 430.787L360.16 419.478L248.477 307.787L369.16 187.104L357.851 175.795Z" fill="white"/>
<path d="M405.851 175.795L273.851 307.787L396.475 430.411L407.784 419.102L296.477 307.787L417.16 187.104L405.851 175.795Z" fill="white"/>
<path d="M95 171.51L106.313 182.822L185.51 103.627L264.705 182.822L276.02 171.51L185.51 81L95 171.51Z" fill="white"/>
<path d="M95 219.51L106.312 230.822L185.51 151.627L264.705 230.822L276.02 219.51L185.51 129L95 219.51Z" fill="white"/>
<path d="M193.51 430.822L209.51 430.822L209.51 191.627L193.51 175.627V430.822Z" fill="white"/>
<path d="M161.51 430.822H177.51L177.51 175.627L161.51 191.627L161.51 430.822Z" fill="white"/>
</g>
<defs>
<clipPath id="clip0_525_5">
<rect width="512" height="512" fill="white"/>
</clipPath>
</defs>
</svg>
